!!!ONB: MCCC : ILB0179_03 : Extracted Monophonic Melody
!!!COM: Beethoven, Ludwig van
!!!OPR: Piano Sonata No.18
!!!OMV: 3
!!!SCT: Op.31 No.3
!!!ODT: 1801///
**kern
*thru
*staff1
*>I
*clefG2
*k[b-e-a-]
*E-:
*M3/4
*MM120
8.B-
16e-
=1
2e-
8.g
16e-
=2
*>A
4e-
4.d
8e-
=3
4.f
8g
8a-
8b-
=4
4a-
4g
8.g
16a-
=5
4.b-
8g
8cc
8a-
=6
4.b-
8b
8cc
8b-
=7
8b-
4a-
8f
8g
16b-
16a-
=8
4g
8f
8r
8B-
8A-
=9
*>A1
2e-
8.g
16e-
=10
*>A
4e-
4.d
8e-
=11
4.f
8g
8a-
8b-
=12
4a-
4g
8.g
16a-
=13
4.b-
8g
8cc
8a-
=14
4.b-
8b
8cc
8b-
=15
8b-
4a-
8f
8g
16b-
16a-
=16
4g
8f
8r
8B-
8A-
=17
*>A2
4g
8f
8B-
8.b-
16cc-
=18
*>B
2cc-
8b-
8a-
=19
4g
8dd
8ff
8ee-
8b-
=20
2cc-
8b-
8a-
=21
4g
8dd
8ff
8ee-
8gg
=22
4.bb-
8gg
8aa-
8ccc
=23
4.bb-
8gg
8aa-
8ff
=24
8gg
8ee-
4.ff
8dd
=25
*>B1
4ff
8ee-
8r
8.b-
16cc-
=26
*>B
2cc-
8b-
8a-
=27
4g
8dd
8ff
8ee-
8b-
=28
2cc-
8b-
8a-
=29
4g
8dd
8ff
8ee-
8gg
=30
4.bb-
8gg
8aa-
8ccc
=31
4.bb-
8gg
8aa-
8ff
=32
8gg
8ee-
4.ff
8dd
=33
*>B2
4a-
8g
8r
*>C
4g
=34
2aa-
4a-
=35
2bb-
4b-
=36
4.cc
8b-
8a-
8g
=37
8f
16a-
16g
8f
4.r
=38
2aa
4b-
=39
2ccc
4dd
=40
8.ee-
16dd
4cc
4ff
=41
4b-
4r
*>C
4g
=43
2aa-
4a-
=44
2bb-
4b-
=45
4.cc
8b-
8a-
8g
=46
8f
16a-
16g
8f
4.r
=47
2aa
4b-
=48
2ccc
4dd
=49
8.ee-
16dd
4cc
4ff
=50
4b-
4r
*>D
4B-
=52
2ff
4B-
=53
2dd
4B-
=54
4ff
4B-
4dd
=55
4B-
4dd
4B-
=56
4dd
4B-
4dd
=57
4B-
4r
4g
=58
2aa-
4a-
=59
2bb-
4b-
=60
4.cc
8b-
8dd
8ee-
=61
8ff
16aa-
16gg
8ff
4.r
=62
2aa
4b-
=63
2ccc
4ddd
=64
8.eee-
16ccc
4bb-
4bb-
=65
4ee-
4r
*>D
4B-
=66
2ff
4B-
=67
2dd
4B-
=68
4ff
4B-
4dd
=69
4B-
4dd
4B-
=70
4dd
4B-
4dd
=71
4B-
4r
4g
=72
2aa-
4a-
=73
2bb-
4b-
=74
4.cc
8b-
8dd
8ee-
=75
8ff
16aa-
16gg
8ff
4.r
=76
2aa
4b-
=77
2ccc
4ddd
=78
8.eee-
16ccc
4bb-
4bb-
=79
4ee-
4r
*>II
8.B-
16e-
=80
2e-
8.g
16e-
=81
*>E
4e-
4.d
8e-
=82
4.f
8g
8a-
8b-
=83
4a-
4g
8.g
16a-
=84
4.b-
8g
8cc
8a-
=85
4.b-
8b
8cc
8b-
=86
8b-
4a-
8f
8g
16b-
16a-
=87
*>E1
4g
8f
8r
8B-
8A-
=88
2e-
8.g
16e-
=89
*>E
4e-
4.d
8e-
=90
4.f
8g
8a-
8b-
=91
4a-
4g
8.g
16a-
=92
4.b-
8g
8cc
8a-
=93
4.b-
8b
8cc
8b-
=94
8b-
4a-
8f
8g
16b-
16a-
=95
*>E2
4g
8f
8B-
*>F
8.b-
16cc-
=96
2cc-
8b-
8a-
=97
4g
8dd
8ff
8ee-
8b-
=98
2cc-
8b-
8a-
=99
4g
8dd
8ff
8ee-
8gg
=100
4.bb-
8gg
8aa-
8ccc
=101
4.bb-
8gg
8aa-
8ff
=102
8gg
8ee-
4.ff
8dd
=103
*>F1
4ff
8ee-
8r
*>F
8.b-
16cc-
=104
2cc-
8b-
8a-
=105
4g
8dd
8ff
8ee-
8b-
=106
2cc-
8b-
8a-
=107
4g
8dd
8ff
8ee-
8gg
=108
4.bb-
8gg
8aa-
8ccc
=109
4.bb-
8gg
8aa-
8ff
=110
8gg
8ee-
4.ff
8dd
=111
*>F2
4ee-
2r
=112
*>G
2f-
8.e-
16d
=113
4e-
4r
8.e-
16f-
=114
2f-
8.e-
16d
=115
4e-
4r
8.e-
16d
=116
4e-
4r
8.e-
16d
=117
4e-[
8.e-]
16d
8.e-
16d
=118
8.e-
16d
8.e-
16d
8.e-
16d
=119
4e-
4r
==
*-
